assets/efishery/perahu-fill.svg

<svg width="24" height="25" viewBox="0 0 24 25" fill="none" xmlns="http://www.w3.org/2000/svg">
<path fill-rule="evenodd" clip-rule="evenodd" d="M14.5195 3.27344H13.5195V3.74512L9.51876 5.7455C9.50427 5.48235 9.2863 5.27344 9.01953 5.27344H5.01953C4.74339 5.27344 4.51953 5.4973 4.51953 5.77344C4.51953 6.04958 4.74339 6.27344 5.01953 6.27344H5.51953V8.27344H4.01953V9.27344H4.58311L5.56003 10.576C5.53397 10.6366 5.51953 10.7033 5.51953 10.7734C5.51953 11.0496 5.74339 11.2734 6.01953 11.2734C6.29567 11.2734 6.51953 11.0496 6.51953 10.7734C6.51953 10.7038 6.50531 10.6375 6.47961 10.5773L7.45752 9.27344H8.01953V8.27344H6.51953V6.27344H7.81641L11.6621 10.3975L10.0118 14.5234H9.26953V13.2734C9.26953 12.8592 8.93374 12.5234 8.51953 12.5234H3.51953C3.10532 12.5234 2.76953 12.8592 2.76953 13.2734V14.5234H1.75002C1.44958 14.5234 1.17814 14.7027 1.06021 14.979C0.942284 15.2554 1.00063 15.5754 1.20849 15.7923L6.47854 21.2923C6.62 21.44 6.8156 21.5234 7.02007 21.5234H20.5201C20.8583 21.5234 21.1547 21.2971 21.2437 20.9708L22.7437 15.4708C22.8052 15.2453 22.758 15.004 22.6161 14.8182C22.4743 14.6324 22.2539 14.5234 22.0201 14.5234H21.2695V10.2734C21.2695 9.85922 20.9337 9.52344 20.5195 9.52344L20.5195 7.77344C20.5195 7.4973 20.2957 7.27344 20.0195 7.27344C19.7434 7.27344 19.5195 7.49729 19.5195 7.77344H18.5195C18.5195 7.4973 18.2957 7.27344 18.0195 7.27344C17.7434 7.27344 17.5195 7.49729 17.5195 7.77344H16.5195C16.5195 7.4973 16.2957 7.27344 16.0195 7.27344C15.7434 7.27344 15.5195 7.49729 15.5195 7.77344V9.52344H14.5195V3.27344ZM16.5195 8.77344V9.52344H17.5195V8.77344H16.5195ZM18.5195 8.77344V9.52344H19.5195V8.77344H18.5195ZM5.76953 10.022L5.20811 9.27344H5.76953V10.022ZM6.26953 10.0241L6.83252 9.27344H6.26953V10.0241ZM9.31004 6.40888L13.5195 4.30413V9.52344H12.5195C12.4286 9.52344 12.3403 9.53987 12.2582 9.57041L9.31004 6.40888ZM21.0382 16.0234L19.9473 20.0234H7.34015L3.50739 16.0234H21.0382ZM15.5195 12.7734C15.5195 13.3257 15.0718 13.7734 14.5195 13.7734C13.9672 13.7734 13.5195 13.3257 13.5195 12.7734C13.5195 12.2212 13.9672 11.7734 14.5195 11.7734C15.0718 11.7734 15.5195 12.2212 15.5195 12.7734ZM17.5195 13.7734C18.0718 13.7734 18.5195 13.3257 18.5195 12.7734C18.5195 12.2212 18.0718 11.7734 17.5195 11.7734C16.9672 11.7734 16.5195 12.2212 16.5195 12.7734C16.5195 13.3257 16.9672 13.7734 17.5195 13.7734Z" fill="#1D1D1D"/>
</svg>

<svg viewBox="0 0 24 25" xmlns="http://www.w3.org/2000/svg">
  <path fill-rule="evenodd" clip-rule="evenodd" d="M14.52 3.273h-1v.472l-4.001 2a.5.5 0 0 0-.5-.472h-4a.5.5 0 0 0 0 1h.5v2h-1.5v1h.564l.977 1.303a.498.498 0 0 0 .46.697.5.5 0 0 0 .46-.696l.978-1.304h.562v-1h-1.5v-2h1.296l3.846 4.125-1.65 4.125H9.27v-1.25a.75.75 0 0 0-.75-.75h-5a.75.75 0 0 0-.75.75v1.25H1.75a.75.75 0 0 0-.542 1.27l5.27 5.5a.75.75 0 0 0 .542.23h13.5a.75.75 0 0 0 .724-.552l1.5-5.5a.75.75 0 0 0-.724-.948h-.75v-4.25a.75.75 0 0 0-.75-.75v-1.75a.5.5 0 1 0-1 0h-1a.5.5 0 1 0-1 0h-1a.5.5 0 1 0-1 0v1.75h-1v-6.25zm2 5.5v.75h1v-.75h-1zm2 0v.75h1v-.75h-1zM5.77 10.022l-.562-.749h.562v.749zm.5.002.563-.75H6.27v.75zM9.31 6.41l4.21-2.105v5.22h-1c-.091 0-.18.016-.262.046L9.31 6.41zm11.728 9.614-1.09 4H7.34l-3.833-4h17.531zm-5.518-3.25a1 1 0 1 1-2 0 1 1 0 0 1 2 0zm2 1a1 1 0 1 0 0-2 1 1 0 0 0 0 2z"/>
</svg>
